papirus-arc-dark/64x64/places/folder-visiting.svg

<?xml version="1.0" encoding="UTF-8" standalone="no"?>
<svg id="svg2" xmlns:rdf="http://www.w3.org/1999/02/22-rdf-syntax-ns#" xmlns="http://www.w3.org/2000/svg" viewBox="0 0 64.000001 64.000001" width="64" version="1.1" xmlns:cc="http://creativecommons.org/ns#" height="64" xmlns:dc="http://purl.org/dc/elements/1.1/">
 <metadata id="metadata7">
  <rdf:RDF>
   <cc:Work rdf:about="">
    <dc:format>image/svg+xml</dc:format>
    <dc:type rdf:resource="http://purl.org/dc/dcmitype/StillImage"/>
    <dc:title/>
   </cc:Work>
  </rdf:RDF>
 </metadata>
 <g id="layer1" transform="translate(0 -988.36)">
  <path id="path5171" fill="#5895dc" d="m7 1035.9v-34.988c0-1.3845 1.1235-2.653 2.5-2.5001h19.5l6 4.9992h19.628s2.3718 0 2.3718 2.4992v29.99c0 1.3845-1.115 2.4992-2.5 2.4992h-44.999c-1.385 0-2.5-1.1146-2.5-2.4992z"/>
  <path id="path5041" opacity=".1" d="m33.68 1003.3-3.68 4.088h-20.5c-2.5 0-2.5 2.396-2.5 2.396v2s0-2.396 2.5-2.396h20.5l4.5-5h0.48633l-1.3066-1.0879zm22.355 1.5645c0.57756 0.4666 0.95676 1.2108 0.96289 2.0039-0.0091-1.0703-0.45872-1.6611-0.96289-2.0039z"/>
  <path id="path5173" fill="#6ba4e7" d="m57 1040.9v-35c0-1.385-1.1235-2.653-2.5-2.5h-20l-4.5 5h-20.5c-2.5 0-2.5 2.3959-2.5 2.3959v30.104c0 1.385 1.115 2.5 2.5 2.5h45c1.385 0 2.5-1.115 2.5-2.5z"/>
  <g id="g4170" fill="#383c4a" transform="matrix(.5 -.86603 .86603 .5 -870.41 533.13)">
   <path id="rect4154" d="m34.5 15-3.572 3.969 26.072 15.051v-6.928l-20.945-12.092h-1.555zm11.555 0 10.945 6.318v-3.818c0-1.385-1.124-2.653-2.5-2.5h-8.4453zm-35.34 5 46.285 26.723v-6.93l-34.285-19.793h-12zm-3.715 3.629v6.928l42.338 24.443h5.162c1.385 0 2.5-1.115 2.5-2.5v-0.004l-50-28.867zm0 12.701v6.928l20.336 11.742h12.002l-32.338-18.67zm0 12.701v3.469c0 1.385 1.115 2.5 2.5 2.5h7.836l-10.336-5.969z" transform="matrix(.5 .86603 -.86603 .5 40.963 981.41)" fill="#383c4a"/>
  </g>
  <path id="path5029" opacity=".1" d="m34.5 15l-4.5 5h-20.5c-2.5 0-2.5 2.396-2.5 2.396v1s0-2.396 2.5-2.396h20.5l4.5-5h20c1.377-0.153 2.5 1.115 2.5 2.5v-1c0-1.385-1.123-2.653-2.5-2.5h-20z" transform="translate(0 988.36)" fill="#fff"/>
  <path id="path5034" opacity=".2" d="m7 1040.9v1c0 1.385 1.115 2.5 2.5 2.5h45c1.385 0 2.5-1.115 2.5-2.5v-1c0 1.385-1.115 2.5-2.5 2.5h-45c-1.385 0-2.5-1.115-2.5-2.5z"/>
  <path id="path5024" opacity=".1" d="m9.5 10.014c-1.3765-0.1536-2.5 1.115-2.5 2.5v1c0-1.385 1.1235-2.654 2.5-2.5h19.5l6 4.998h19.629s2.371 0.001 2.371 2.5v-1c0-2.499-2.371-2.5-2.371-2.5h-19.629l-6-4.998h-19.5z" transform="translate(0 988.36)" fill="#fff"/>
 </g>
</svg>

<?xml version="1.0" encoding="UTF-8" standalone="no"?>
<svg
   xmlns:dc="http://purl.org/dc/elements/1.1/"
   xmlns:cc="http://creativecommons.org/ns#"
   xmlns:rdf="http://www.w3.org/1999/02/22-rdf-syntax-ns#"
   xmlns:svg="http://www.w3.org/2000/svg"
   xmlns="http://www.w3.org/2000/svg"
   height="64"
   version="1.1"
   width="64"
   viewBox="0 0 64.000001 64.000001"
   id="svg2">
  <defs
     id="defs15" />
  <metadata
     id="metadata7">
    <rdf:RDF>
      <cc:Work
         rdf:about="">
        <dc:format>image/svg+xml</dc:format>
        <dc:type
           rdf:resource="http://purl.org/dc/dcmitype/StillImage" />
        <dc:title />
      </cc:Work>
    </rdf:RDF>
  </metadata>
  <path
     id="path5171"
     d="M 7,47.54 7,12.552 C 7,11.1675 8.1235,9.899 9.5,10.0519 l 19.5,0 6,4.9992 19.628,0 c 0,0 2.3718,0 2.3718,2.4992 l 0,29.99 c 0,1.3845 -1.115,2.4992 -2.5,2.4992 l -44.999,0 c -1.385,0 -2.5,-1.1146 -2.5,-2.4992 z"
     style="fill:#5895dc" />
  <path
     id="path5041"
     d="m 33.68,14.94 -3.68,4.088 -20.5,0 C 7,19.028 7,21.424 7,21.424 l 0,2 c 0,0 0,-2.396 2.5,-2.396 l 20.5,0 4.5,-5 0.48633,0 -1.3066,-1.0879 z m 22.355,1.5645 c 0.57756,0.4666 0.95676,1.2108 0.96289,2.0039 -0.0091,-1.0703 -0.45872,-1.6611 -0.96289,-2.0039 z"
     style="opacity:0.1" />
  <path
     id="path5173"
     d="m 57,52.54 0,-35 c 0,-1.385 -1.1235,-2.653 -2.5,-2.5 l -20,0 -4.5,5 -20.5,0 C 7,20.04 7,22.4359 7,22.4359 l 0,30.104 c 0,1.385 1.115,2.5 2.5,2.5 l 45,0 c 1.385,0 2.5,-1.115 2.5,-2.5 z"
     style="fill:#6ba4e7" />
  <g
     id="g4170"
     transform="matrix(0.5,-0.86603,0.86603,0.5,-870.41,-455.23)"
     style="fill:#000000;fill-opacity:1;opacity:0.65">
    <path
       id="rect4154"
       d="M 34.5,15 30.928,18.969 57,34.02 57,27.092 36.055,15 34.5,15 Z M 46.055,15 57,21.318 57,17.5 C 57,16.115 55.876,14.847 54.5,15 l -8.4453,0 z M 10.715,20 57,46.723 57,39.793 22.715,20 l -12,0 z M 7,23.629 7,30.557 49.338,55 54.5,55 C 55.885,55 57,53.885 57,52.5 L 57,52.496 7,23.629 Z M 7,36.33 7,43.258 27.336,55 39.338,55 7,36.33 Z M 7,49.031 7,52.5 C 7,53.885 8.115,55 9.5,55 L 17.336,55 7,49.031 Z"
       transform="matrix(0.5,0.86603,-0.86603,0.5,40.963,981.41)"
       style="fill:#000000;fill-opacity:1" />
  </g>
  <path
     id="path5029"
     d="M 34.5,15 30,20 9.5,20 C 7,20 7,22.396 7,22.396 l 0,1 C 7,23.396 7,21 9.5,21 l 20.5,0 4.5,-5 20,0 c 1.377,-0.153 2.5,1.115 2.5,2.5 l 0,-1 C 57,16.115 55.877,14.847 54.5,15 l -20,0 z"
     style="opacity:0.1;fill:#ffffff" />
  <path
     id="path5034"
     d="m 7,52.54 0,1 c 0,1.385 1.115,2.5 2.5,2.5 l 45,0 c 1.385,0 2.5,-1.115 2.5,-2.5 l 0,-1 c 0,1.385 -1.115,2.5 -2.5,2.5 l -45,0 C 8.115,55.04 7,53.925 7,52.54 Z"
     style="opacity:0.2" />
  <path
     id="path5024"
     d="M 9.5,10.014 C 8.1235,9.8604 7,11.129 7,12.514 l 0,1 c 0,-1.385 1.1235,-2.654 2.5,-2.5 l 19.5,0 6,4.998 19.629,0 c 0,0 2.371,0.001 2.371,2.5 l 0,-1 c 0,-2.499 -2.371,-2.5 -2.371,-2.5 l -19.629,0 -6,-4.998 -19.5,0 z"
     style="opacity:0.1;fill:#ffffff" />
</svg>
